X:1
T:Westworld Theme
T:Westworld Theme
T:for solo cello
T:Arr. Madison DeWeerd
C:Arr. Video Game Cellist
L:1/8
Q:3/8=72
M:12/8
K:C
V:1 bass nm="Violoncello" snm="Vc."
V:1
 A,,3 C,3 D,3 E,3- | E,6 z2 z4 | A,,3 E,3 D,3 C,3- | C,6 z2 z4 | A,,3 C,3 D,3 E,3- | E,6 z2 z4 | %6
 _B,,3 F,3 E,3 D,3 | E,6 z2 z4 | E,2 F, E,2 F, E,D,C,- C,3 | D,6 z2 z4 | %10
 D,2 E, D,2 E, D,C,G,,- G,,3 | A,,6 z2 z4 | F,2 G, F,2 G, F,E,D,- D,3 | F,E,- E,4 z2 z4 | %14
"^pizz" _B,,3 A,,3 _A,,3 G,,3 |"^arco" E2 F E2 F EDC- C3 | D6 z2 z4 | D2 E D2 E DCG,- G,3 | %18
 A,6 z2 z4 | F2 G F2 G FED- D3 | FE- E4 z2 z4 |"^pizz" _B,,3 A,,3 _A,,3 G,,3 | %22
 C,/E,/F,/^G,/A, C,/E,/F,/G,/A, C,/E,/F,/G,/A, C,/E,/F,/G,/A, | %23
 C,/F,/^G,<A, C,/F,/G,<A, C,/F,/G,<A, C,/F,/G,<A, | %24
 C,/E,/F,/^G,/A, C,/E,/F,/G,/A, C,/E,/F,/G,/A, C,/E,/F,/G,/A, |"^arco" E,2 F, E,2 F, E,D,C,- C,3 | %26
 D,2 E, D,2 E, D,C,G,,- G,,3 | D,2 E, D,2 E, D,E,G,- G,3 | F, E,2- E,6 z z2 | %29
 E,2 F, E,2 F, E,F,A,- A,3 | C3 B,2 C B,A,E,- E,3 |"^pizz" _B,,3 A,,3 _A,,3 G,,3 | %32
"^arco" E2 F E2 F EDC- C3 | D2 E D2 E DCG,- G,3 | D2 E D2 E DEG- G3 | F E2- E6 z z2 | %36
[K:treble] E2 F E2 F EFA- A3 | c3 B2 c BAE- E3 |[K:bass]"^pizz" _B,,3 A,,3 _A,,3 G,,3 | %39
 !courtesy!=A,,12 |] %40

